X:1
T:There’s a Great Day Coming
T:Will Lamartine Thompson, 1886
T:There’s a Great Day Coming
T:Public Domain
T:Public Domain
C:Will Lamartine Thompson, 1886
Z:Public Domain
%%score ( 1 2 ) ( 3 4 )
L:1/8
M:4/4
K:F
V:1 treble 
V:2 treble 
V:3 bass 
V:4 bass 
V:1
 CC | [CF]2 [CF]2 [CF]<[CF]- [CF][CF] | [FA]2 [FA]2 [CG]<[CF] [B,D][A,C] | %3
w: 1.~There’s a|com- ing, a great * day|com- ing; There’s a great day|
w: 2.~There’s a|com- ing, a bright * day|com- ing; There’s a bright day|
w: 3.~There’s a|com- ing, a sad * day|com- ing; There’s a sad day|
 [CF]2 [DF]2 [CF]<[CF] [EG][FA] | [EG]6 F[EG] | [FA]2 [FA][FA] [FA][Fc][Fc][FA] | %6
w: com- ing by and by, When|the saints and|the sin- ners shall be part- ed|
w: com- ing by and by. But|its bright- ness|shall on- ly come to them that|
w: com- ing by and by, When|the sin- ner|shall hear his doom: “De- part, I|
 [DG][DF][DF][B,D] [A,C]2 [A,C][A,C] | [CF]<[CF] [CF][CF] [EG]2 [EG]2 | [CF]6- [CF]2 || %9
w: right and left, Are you rea- dy|for that day to come? *||
w: love the Lord. Are you rea- dy|for that day to come? *||
w: know you not!” Are you rea- dy|for that day to come? *||
"^Refrain" [Fc]3 [Fc] [Fd][Fc] z2 | [FA]3 [FA] [FB][FA] z2 | [CF]3 [CF] [CF][CF][CF][CF] | %12
w: |||
w: |||
w: |||
 [=B,A]2 [B,G]2 [CG]4 | [Fc]3 [Fc] [Fd][Fc] z2 | [FA]3 [FA] [FB][FA] z2 [CF]3 [CF] [EG]2 [EG]2 | %15
w: |||
w: |||
w: |||
 [CF]6 |] %16
w: |
w: |
w: |
V:2
 CC | x8 | x8 | x8 | x8 | x8 | x8 | x8 | x8 || x8 | x8 | x8 | x8 | x8 | x16 | x6 |] %16
w: great day||||||||||||||||
w: bright day||||||||||||||||
w: sad day||||||||||||||||
V:3
 [F,A,][F,A,] | [F,A,]2 [F,A,]2 [F,A,]<[F,A,]- [F,A,][F,A,] | [F,C]2 [F,C]2 [F,B,]<[F,A,] F,F, | %3
w: ~ ~|~ ~ ~ ~ * ~|~ ~ ~ ~ ~ ~|
 [F,A,]2 [F,A,]2 [A,,F,]<[A,,F,] [G,,C][F,,C] | [C,C]6 [A,,C][C,C] | %5
w: ~ ~ ~ ~ ~ ~|~ ~ ~|
 [F,C]2 [F,C][F,C] [F,C][F,A,][F,A,][F,C] | B,B,[B,,B,][B,,F,] F,2 F,F, | %7
w: ~ ~ ~ ~ ~ ~ ~|~ ~ ~ ~ ~ ~ ~|
 [A,,F,]<[A,,F,] [A,,F,][A,,C] [C,B,]2 [C,B,]2 | [F,A,]6- [F,A,]2 || %9
w: Are you rea- dy? Are you|rea- *|
 [F,A,]3 [F,A,] [F,B,][F,A,] z2 | [F,C]3 [F,C] [F,D][F,C] z2 | %11
w: dy? Are you rea-|dy for the judg-|
 [A,,F,]3 [A,,F,] [F,,A,][F,,A,][A,,F,][A,,F,] | [G,,F,]2 [G,,D,]2 [C,E,]4 | %13
w: ment day? Are you rea- dy?|Are you rea-|
 [F,A,]3 [F,A,] [F,B,][F,A,] z2 | [F,C]3 [F,C] [F,D][F,C] z2 [A,,F,]3 [A,,C] [C,B,]2 [C,B,]2 | %15
w: dy? For the judg-|ment day? * * * * * *|
 [F,A,]6 |] %16
w: |
V:4
 x2 | x8 | x6 F,F, | x8 | x8 | x8 | B,B, x F,2 F,F, x | x8 | x8 || x8 | x8 | x8 | x8 | x8 | x16 | %15
w: ||~ ~||||~ ~ ~ ~ ~|||||||||
 x6 |] %16
w: |

